libs/icons/src/svg/copy.svg

<svg width="16" height="16" viewBox="0 0 16 16" fill="none" xmlns="http://www.w3.org/2000/svg">
<g clip-path="url(#clip0_3_3785)">
<path fill-rule="evenodd" clip-rule="evenodd" d="M10 5.33334C10 4.96515 10.2985 4.66667 10.6667 4.66667H14.6667C15.0349 4.66667 15.3334 4.96515 15.3334 5.33334V14.6667C15.3334 15.0349 15.0349 15.3333 14.6667 15.3333H5.33335C4.96516 15.3333 4.66669 15.0349 4.66669 14.6667V10.6667C4.66669 10.2985 4.96516 10 5.33335 10C5.70154 10 6.00002 10.2985 6.00002 10.6667V14H14V6.00001H10.6667C10.2985 6.00001 10 5.70153 10 5.33334Z" fill="#202327"/>
<path fill-rule="evenodd" clip-rule="evenodd" d="M0.666687 1.33334C0.666687 0.965149 0.965164 0.666672 1.33335 0.666672H10.6667C11.0349 0.666672 11.3334 0.965149 11.3334 1.33334V10.6667C11.3334 11.0349 11.0349 11.3333 10.6667 11.3333H1.33335C0.965164 11.3333 0.666687 11.0349 0.666687 10.6667V1.33334ZM2.00002 2.00001V10H10V2.00001H2.00002Z" fill="#202327"/>
</g>
<defs>
<clipPath id="clip0_3_3785">
<rect width="16" height="16" fill="white"/>
</clipPath>
</defs>
</svg>

<svg xmlns="http://www.w3.org/2000/svg" viewBox="0 0 16 16" class="sageicon"><path fill-rule="evenodd" d="M10 5.333c0-.368.299-.666.667-.666h4c.368 0 .666.298.666.666v9.334a.667.667 0 0 1-.666.666H5.333a.667.667 0 0 1-.666-.666v-4a.667.667 0 1 1 1.333 0V14h8V6h-3.333A.667.667 0 0 1 10 5.333Z"/><path fill-rule="evenodd" d="M.667 1.333c0-.368.298-.666.666-.666h9.334c.368 0 .666.298.666.666v9.334a.667.667 0 0 1-.666.666H1.333a.667.667 0 0 1-.666-.666V1.333ZM2 2v8h8V2H2Z"/></svg>
